assets/img/icon-heart.svg

<svg width="18" height="17" viewBox="0 0 18 17" fill="none" xmlns="http://www.w3.org/2000/svg">
<path d="M8.9998 16.2502L8.44981 15.7502C6.83314 14.2669 5.49564 13.0002 4.4373 11.9502C3.37897 10.9002 2.54564 9.97936 1.9373 9.1877C1.32897 8.39603 0.903971 7.68353 0.662305 7.0502C0.420638 6.41686 0.299805 5.78353 0.299805 5.1502C0.299805 3.96686 0.703971 2.97103 1.5123 2.1627C2.32064 1.35436 3.31647 0.950195 4.4998 0.950195C5.38314 0.950195 6.20814 1.1877 6.9748 1.6627C7.74147 2.1377 8.41647 2.83353 8.9998 3.7502C9.58314 2.83353 10.2581 2.1377 11.0248 1.6627C11.7915 1.1877 12.6165 0.950195 13.4998 0.950195C14.6831 0.950195 15.679 1.35436 16.4873 2.1627C17.2956 2.97103 17.6998 3.96686 17.6998 5.1502C17.6998 5.78353 17.579 6.41686 17.3373 7.0502C17.0956 7.68353 16.6706 8.39603 16.0623 9.1877C15.454 9.97936 14.6248 10.9002 13.5748 11.9502C12.5248 13.0002 11.1831 14.2669 9.5498 15.7502L8.9998 16.2502ZM8.9998 15.3002C10.5998 13.8502 11.9165 12.6085 12.9498 11.5752C13.9831 10.5419 14.7998 9.64603 15.3998 8.8877C15.9998 8.12936 16.4165 7.45853 16.6498 6.8752C16.8831 6.29186 16.9998 5.71686 16.9998 5.1502C16.9998 4.1502 16.6665 3.31686 15.9998 2.6502C15.3331 1.98353 14.4998 1.6502 13.4998 1.6502C12.6998 1.6502 11.9623 1.87936 11.2873 2.3377C10.6123 2.79603 9.96647 3.51686 9.3498 4.5002H8.64981C8.01647 3.5002 7.36647 2.7752 6.6998 2.3252C6.03314 1.8752 5.2998 1.6502 4.4998 1.6502C3.51647 1.6502 2.6873 1.98353 2.0123 2.6502C1.3373 3.31686 0.999805 4.1502 0.999805 5.1502C0.999805 5.71686 1.11647 6.29186 1.3498 6.8752C1.58314 7.45853 1.9998 8.12936 2.5998 8.8877C3.1998 9.64603 4.01647 10.5377 5.0498 11.5627C6.08314 12.5877 7.3998 13.8335 8.9998 15.3002Z" fill="#121212"/>
</svg>

<svg width="18" height="17" fill="none" xmlns="http://www.w3.org/2000/svg"><path d="M9 16.25l-.55-.5a145.551 145.551 0 01-4.013-3.8c-1.058-1.05-1.891-1.97-2.5-2.762C1.33 8.396.904 7.684.662 7.05A5.297 5.297 0 01.3 5.15c0-1.183.404-2.179 1.212-2.987C2.321 1.354 3.316.95 4.5.95c.883 0 1.708.238 2.475.713C7.74 2.138 8.416 2.833 9 3.75c.583-.916 1.258-1.612 2.025-2.087A4.616 4.616 0 0113.5.95c1.183 0 2.179.404 2.987 1.213.809.808 1.213 1.804 1.213 2.987 0 .634-.121 1.267-.363 1.9-.241.634-.666 1.346-1.275 2.138-.608.791-1.437 1.712-2.487 2.762a118.524 118.524 0 01-4.025 3.8l-.55.5zm0-.95a113.68 113.68 0 003.95-3.725c1.033-1.033 1.85-1.929 2.45-2.687.6-.759 1.016-1.43 1.25-2.013.233-.583.35-1.158.35-1.725 0-1-.334-1.833-1-2.5-.667-.666-1.5-1-2.5-1-.8 0-1.538.23-2.213.688-.675.458-1.32 1.179-1.937 2.162h-.7c-.634-1-1.284-1.725-1.95-2.175a3.85 3.85 0 00-2.2-.675c-.984 0-1.813.334-2.488 1C1.337 3.317 1 4.15 1 5.15c0 .567.116 1.142.35 1.725.233.584.65 1.254 1.25 2.013.6.758 1.416 1.65 2.45 2.675C6.083 12.588 7.4 13.833 9 15.3z" fill="#121212"/></svg>
